resources/svg/bed-double-o.svg

<svg xmlns="http://www.w3.org/2000/svg" viewBox="0 0 15 15" fill="none"><path d="M14.5 7v8M.5 7v8M0 10.5h15m-15-3h15m-13-2h4m3 0h4M.5 6V.5h14V6" stroke="currentColor"/></svg>

<svg xmlns="http://www.w3.org/2000/svg" viewBox="0 0 15 15" fill="none"><path d="M14.5 7V15M0.5 7V15M0 10.5H15M0 7.5H15M2 5.5H6M9 5.5H13M0.5 6V0.5H14.5V6" stroke="black"/></svg>
